assets/Man biking/Light/Flat/man_biking_flat_light.svg

<svg width="32" height="32" viewBox="0 0 32 32" fill="none" xmlns="http://www.w3.org/2000/svg">
<path d="M12 25.25C12 27.5972 10.0972 29.5 7.75 29.5C5.40279 29.5 3.5 27.5972 3.5 25.25C3.5 22.9028 5.40279 21 7.75 21C10.0972 21 12 22.9028 12 25.25ZM10.5 25.25C10.5 23.7312 9.26878 22.5 7.75 22.5C6.23122 22.5 5 23.7312 5 25.25C5 26.7688 6.23122 28 7.75 28C9.26878 28 10.5 26.7688 10.5 25.25Z" fill="#F3EEF8"/>
<path d="M28.1001 25.25C28.1001 27.5972 26.1973 29.5 23.8501 29.5C21.5029 29.5 19.6001 27.5972 19.6001 25.25C19.6001 22.9028 21.5029 21 23.8501 21C26.1973 21 28.1001 22.9028 28.1001 25.25ZM26.6001 25.25C26.6001 23.7312 25.3689 22.5 23.8501 22.5C22.3313 22.5 21.1001 23.7312 21.1001 25.25C21.1001 26.7688 22.3313 28 23.8501 28C25.3689 28 26.6001 26.7688 26.6001 25.25Z" fill="#F3EEF8"/>
<path d="M14.8701 6.90991L16.7001 8.14991L15.5401 9.89991L13.8301 8.71991L14.8701 6.90991Z" fill="#F4C6AD"/>
<path d="M15.52 14.8701L14.18 15.6701C13.51 16.0701 13.16 16.8601 13.36 17.6201C13.36 17.6301 13.36 17.6301 13.37 17.6401C13.43 17.8701 13.57 18.0701 13.77 18.2101L17.66 21.0301L18.87 20.4501L15.67 17.4701L17 16.7001L15.52 14.8701Z" fill="#F4C6AD"/>
<path d="M18.4599 13.02L15.1799 15.06L16.3199 16.49C16.4399 16.76 16.9399 16.96 17.3699 16.78L20.5699 14.93L18.4599 13.02Z" fill="#636363"/>
<path d="M17.2101 23.29C17.3901 22.37 17.6601 21.04 17.6601 21.04L18.8501 20.46L19.383 20.8879C19.3876 20.8827 19.39 20.8799 19.39 20.8799L19.61 21.0599C19.8 21.2199 19.58 21.4999 19.58 21.4999L17.78 23.6099C17.78 23.6099 17.71 23.6899 17.61 23.6499C17.592 23.6379 17.5595 23.615 17.5364 23.5987C17.3689 23.5444 17.185 23.4093 17.2101 23.29Z" fill="#533566"/>
<path d="M7.431 13.7001C7.431 12.5393 8.37282 11.6112 9.5199 11.6112H13.0399C13.196 11.6112 13.3418 11.6889 13.4289 11.8184C13.5161 11.9478 13.533 12.1122 13.4742 12.2568L11.0542 18.2068C10.9567 18.4466 10.6831 18.562 10.4432 18.4645C10.2034 18.3669 10.088 18.0933 10.1856 17.8534L12.343 12.549H9.5199C8.88698 12.549 8.3688 13.061 8.3688 13.7001C8.3688 14.333 8.88075 14.8512 9.5199 14.8512C9.77887 14.8512 9.9888 15.0611 9.9888 15.3201C9.9888 15.5791 9.77887 15.789 9.5199 15.789C8.35905 15.789 7.431 14.8472 7.431 13.7001Z" fill="#D3D3D3"/>
<path d="M7.8999 13.2311C8.15887 13.2311 8.3688 13.441 8.3688 13.7C8.3688 14.3329 8.88075 14.8511 9.5199 14.8511C9.77887 14.8511 9.9888 15.061 9.9888 15.32C9.9888 15.5789 9.77887 15.7889 9.5199 15.7889C8.35905 15.7889 7.431 14.8471 7.431 13.7C7.431 13.441 7.64093 13.2311 7.8999 13.2311Z" fill="#433B6B"/>
<path d="M7.79004 20.4126C5.14255 20.4126 2.99634 22.5588 2.99634 25.2063C2.99634 27.8538 5.14255 30 7.79004 30C10.4375 30 12.5837 27.8538 12.5837 25.2063C12.5837 22.5588 10.4375 20.4126 7.79004 20.4126ZM4.02374 25.2063C4.02374 23.1262 5.70997 21.44 7.79004 21.44C9.87011 21.44 11.5563 23.1262 11.5563 25.2063C11.5563 27.2864 9.87011 28.9726 7.79004 28.9726C5.70997 28.9726 4.02374 27.2864 4.02374 25.2063Z" fill="#433B6B"/>
<path d="M23.8901 20.4126C21.2426 20.4126 19.0964 22.5588 19.0964 25.2063C19.0964 27.8538 21.2426 30 23.8901 30C26.5376 30 28.6838 27.8538 28.6838 25.2063C28.6838 22.5588 26.5376 20.4126 23.8901 20.4126ZM20.1238 25.2063C20.1238 23.1262 21.8101 21.44 23.8901 21.44C25.9702 21.44 27.6564 23.1262 27.6564 25.2063C27.6564 27.2864 25.9702 28.9726 23.8901 28.9726C21.8101 28.9726 20.1238 27.2864 20.1238 25.2063Z" fill="#433B6B"/>
<path d="M20.0744 16.9821C19.962 16.8063 19.7548 16.7155 19.5493 16.7522C19.3439 16.7888 19.1808 16.9456 19.1361 17.1494L17.6177 24.0673L10.7961 18.9643L11.4082 17.4538C11.5152 17.1898 11.3878 16.889 11.1238 16.782C10.8598 16.6751 10.5591 16.8024 10.4521 17.0664L7.33208 24.7664C7.2251 25.0304 7.35241 25.3311 7.61642 25.4381C7.88044 25.5451 8.18119 25.4178 8.28817 25.1538L10.3955 19.9529L17.6409 25.373C17.7813 25.478 17.9654 25.5045 18.1298 25.4434C18.2941 25.3822 18.4161 25.2418 18.4537 25.0705L19.8766 18.5875L24.0653 25.1378C24.2188 25.3778 24.5378 25.448 24.7778 25.2945C25.0178 25.141 25.0879 24.8221 24.9344 24.5821L20.0744 16.9821Z" fill="#F8312F"/>
<path d="M24.37 23.9399L18.41 23.1599C17.4 23.0299 16.51 23.8099 16.51 24.8299C16.51 25.8399 17.4 26.6299 18.41 26.4999L24.37 25.7199C24.81 25.6599 25.15 25.2799 25.15 24.8399C25.14 24.3799 24.81 23.9999 24.37 23.9399Z" fill="#F9C23C"/>
<path d="M18.1299 25.8301C18.6767 25.8301 19.1199 25.3869 19.1199 24.8401C19.1199 24.2933 18.6767 23.8501 18.1299 23.8501C17.5831 23.8501 17.1399 24.2933 17.1399 24.8401C17.1399 25.3869 17.5831 25.8301 18.1299 25.8301Z" fill="white"/>
<path d="M17.7601 8.14012C17.4201 8.00012 16.9201 7.89012 16.4001 8.09012C15.0901 8.59012 14.9701 9.52012 14.9701 9.52012C14.9701 9.52012 14.7501 10.6901 16.2701 11.7801C16.2801 11.7801 17.1901 12.7201 17.8501 14.1401C17.9801 14.4201 18.3201 14.5301 18.5901 14.3801L22.1501 12.3701C20.6101 9.65012 18.2001 8.20012 17.7601 8.14012Z" fill="#0092E7"/>
<path d="M21.9801 12.1001L22.2201 12.8801C22.6501 14.1101 22.3201 15.1701 21.2201 15.8001L17.2701 18.5201L17.3101 24.0501L15.9201 23.4001L15.1401 18.6201C15.0201 17.7801 15.3001 16.9401 15.8901 16.3301L15.9001 16.3201L18.9601 14.0501L21.9801 12.1001Z" fill="#FFD7C2"/>
<path d="M13.5999 24.6199C14.5399 24.1299 15.9299 23.4099 15.9299 23.4099L17.3299 24.0599L17.3301 25.18C17.3301 25.47 16.7401 25.45 16.7401 25.45L13.7301 25.4C13.7301 25.4 13.6501 25.39 13.6101 25.28C13.5801 25.24 13.5601 25.15 13.5601 25.15L13.5699 25.15C13.4922 24.9592 13.4768 24.6847 13.5999 24.6199Z" fill="#533566"/>
<path d="M22.56 13.33C22.56 13.33 22.45 12.64 21.39 11.21L17.51 13.61L17.9 14.23C18.03 14.44 17.98 14.71 17.79 14.86L16.47 15.89L18.43 18C18.86 18.48 19.62 18.45 20.02 17.95L21.7 16.02C21.99 15.68 22.24 15.31 22.43 14.91C22.64 14.48 22.7 13.77 22.56 13.33Z" fill="#9B9B9B"/>
<path d="M12.2999 4.60012L11.3899 5.09012C10.6199 5.50012 10.3299 6.47012 10.7399 7.24012L10.9499 7.63012C11.0199 7.75012 11.0499 7.89012 11.0399 8.03012C11.0199 8.45012 10.9499 8.53012 11.0299 8.69012C11.1399 8.94012 11.3999 8.88012 11.5199 8.83012C11.5499 8.82012 11.5899 8.83012 11.6099 8.86012C12.0999 9.71012 12.5899 10.2501 13.6299 9.70012C14.2599 9.36012 15.0899 8.51012 14.9799 7.61012L14.7099 6.46012L14.4499 5.25012C14.0399 4.49012 13.0699 4.19012 12.2999 4.60012Z" fill="#FFD7C2"/>
<path d="M11.5199 7.85006C11.4699 7.88006 11.3899 7.85006 11.3599 7.79006C11.3599 7.79006 11.3599 7.79006 11.3599 7.78006C11.2099 7.52006 11.3599 7.26006 11.5699 7.15006C11.7799 7.04006 12.0799 7.06006 12.2199 7.32006C12.2199 7.32006 12.2199 7.32006 12.2199 7.33006C12.2499 7.40006 12.2299 7.47006 12.1799 7.50006L11.5199 7.85006Z" fill="white"/>
<path d="M11.4299 7.89009C11.3999 7.86009 11.3699 7.82009 11.3499 7.78009C11.2499 7.59009 11.2899 7.38009 11.4299 7.30009C11.5799 7.22009 11.7799 7.31009 11.8799 7.50009C11.8999 7.54009 11.9199 7.59009 11.9299 7.63009L11.4299 7.89009Z" fill="#7D4533"/>
<path d="M11.5199 7.85011C11.4799 7.83011 11.4499 7.79011 11.4199 7.75011C11.3699 7.64011 11.3899 7.51011 11.4699 7.47011C11.5499 7.43011 11.6699 7.48011 11.7199 7.58011C11.7399 7.63011 11.7499 7.67011 11.7499 7.72011L11.5199 7.85011Z" fill="black"/>
<path d="M11.4368 7.64892C11.4691 7.6415 11.4873 7.60058 11.4774 7.55752C11.4675 7.51446 11.4333 7.48556 11.401 7.49298C11.3687 7.5004 11.3506 7.54132 11.3605 7.58439C11.3703 7.62745 11.4045 7.65634 11.4368 7.64892Z" fill="white"/>
<path d="M12.4833 8.38239C12.5428 8.37324 12.5984 8.41403 12.6076 8.4735C12.6562 8.78954 12.4494 9.08768 12.1371 9.13765C12.0777 9.14716 12.0218 9.1067 12.0123 9.04728C12.0028 8.98787 12.0433 8.93199 12.1027 8.92249C12.2904 8.89245 12.4236 8.7106 12.3922 8.50664C12.3831 8.44716 12.4239 8.39154 12.4833 8.38239Z" fill="#990838"/>
<path d="M13.1699 4.89648C12.3593 5.12446 12.6099 5.87612 12.6899 6.06006C12.7699 6.24006 12.9899 6.32006 13.1699 6.24006L13.2599 6.20006C13.4199 6.12006 13.6099 6.19006 13.6799 6.35006L13.9699 6.95006C14.1399 7.30006 14.6699 7.27006 14.8799 7.11006C15.0899 6.95006 15.2599 6.68006 15.2799 6.47006C15.3099 6.23006 15.2699 5.90006 15.2099 5.67006C15.1599 5.46006 15.0899 5.22006 15.0099 4.99006C14.2523 4.72921 14.22 4.60114 13.1699 4.89648Z" fill="#212121"/>
<path d="M13.2199 6.21009C13.5399 6.06009 13.9299 6.20009 14.0799 6.52009C14.2099 6.79009 14.1299 7.11009 13.9099 7.29009C13.8399 7.34009 13.7399 7.32009 13.7099 7.24009L13.2199 6.21009Z" fill="#FFD7C2"/>
<path d="M14.39 9.51007C14.29 9.51007 14.2 9.45007 14.16 9.35007L13 6.17007C12.95 6.05007 13.02 5.91007 13.14 5.86007C13.27 5.81007 13.4 5.88007 13.45 6.00007L14.61 9.18007C14.66 9.30007 14.59 9.44007 14.47 9.49007C14.44 9.51007 14.41 9.51007 14.39 9.51007Z" fill="#433B6B"/>
<path d="M12.0599 3.18011L10.6099 3.87011C9.65988 4.32011 9.24988 5.46011 9.69988 6.41011L10.0999 7.25011C10.1899 7.45011 10.4299 7.53011 10.6299 7.44011L14.8099 5.46011C15.0099 5.37011 15.0899 5.13011 14.9999 4.93011L14.5999 4.09011C14.1499 3.14011 13.0099 2.73011 12.0599 3.18011Z" fill="#00A6ED"/>
<path d="M12.7899 4.96L11.5199 5.56C11.3599 5.64 11.2899 5.83 11.3699 5.99C11.4399 6.15 11.6299 6.22 11.7999 6.14L13.0699 5.54C13.2299 5.46 13.2999 5.27 13.2199 5.11C13.1399 4.95 12.9499 4.88 12.7899 4.96Z" fill="#007ACF"/>
<path d="M16.7901 8.87008C16.2801 8.62008 15.6601 8.82008 15.4001 9.33008C15.3901 9.35008 14.2501 11.5601 12.0601 12.4801C11.3201 12.7901 9.89009 13.0501 9.41009 13.1301C9.20009 13.1601 8.75009 13.3901 8.60009 13.5301C8.60009 13.5301 7.81009 14.3201 7.79009 14.9201C7.77009 15.5201 8.76009 15.8201 8.76009 15.8201C8.76009 15.8201 9.10009 15.9301 9.19009 15.4201C9.23009 15.2201 9.42009 15.2301 9.70009 15.1801C9.70009 15.1801 11.7501 14.8501 12.8501 14.3901C15.7701 13.1701 17.1901 10.3701 17.2401 10.2501C17.5101 9.74008 17.3001 9.12008 16.7901 8.87008Z" fill="#FFD7C2"/>
</svg>

<svg xmlns="http://www.w3.org/2000/svg" width="32" height="32" fill="none"><path fill="#F3EEF8" d="M12 25.25a4.25 4.25 0 1 1-8.5 0 4.25 4.25 0 0 1 8.5 0Zm-1.5 0a2.75 2.75 0 1 0-5.5 0 2.75 2.75 0 0 0 5.5 0ZM28.1 25.25a4.25 4.25 0 1 1-8.5 0 4.25 4.25 0 0 1 8.5 0Zm-1.5 0a2.75 2.75 0 1 0-5.5 0 2.75 2.75 0 0 0 5.5 0Z"/><path fill="#F4C6AD" d="m14.87 6.91 1.83 1.24-1.16 1.75-1.71-1.18 1.04-1.81ZM15.52 14.87l-1.34.8c-.67.4-1.02 1.19-.82 1.95 0 .01 0 .01.01.02.06.23.2.43.4.57l3.89 2.82 1.21-.58-3.2-2.98L17 16.7l-1.48-1.83Z"/><path fill="#636363" d="m18.46 13.02-3.28 2.04 1.14 1.43c.12.27.62.47 1.05.29l3.2-1.85-2.11-1.91Z"/><path fill="#533566" d="M17.21 23.29c.18-.92.45-2.25.45-2.25l1.19-.58.533.428a.76.76 0 0 0 .007-.008l.22.18c.19.16-.03.44-.03.44l-1.8 2.11s-.07.08-.17.04a4.326 4.326 0 0 1-.074-.051c-.167-.055-.351-.19-.326-.309Z"/><path fill="#D3D3D3" d="M7.431 13.7c0-1.16.942-2.089 2.089-2.089h3.52a.469.469 0 0 1 .434.646l-2.42 5.95a.469.469 0 0 1-.868-.354l2.157-5.304H9.52a1.15 1.15 0 1 0 0 2.302.469.469 0 1 1 0 .938A2.088 2.088 0 0 1 7.43 13.7Z"/><path fill="#433B6B" d="M7.9 13.231c.259 0 .469.21.469.469a1.15 1.15 0 0 0 1.15 1.151.469.469 0 1 1 0 .938A2.088 2.088 0 0 1 7.432 13.7c0-.259.21-.469.469-.469ZM7.79 20.413a4.794 4.794 0 1 0 0 9.587 4.794 4.794 0 0 0 0-9.587Zm-3.766 4.793a3.766 3.766 0 1 1 7.532 0 3.766 3.766 0 0 1-7.532 0ZM23.89 20.413a4.794 4.794 0 1 0 0 9.587 4.794 4.794 0 0 0 0-9.587Zm-3.766 4.793a3.766 3.766 0 1 1 7.532 0 3.766 3.766 0 0 1-7.532 0Z"/><path fill="#F8312F" d="M20.074 16.982a.516.516 0 0 0-.938.167l-1.518 6.918-6.822-5.103.612-1.51a.516.516 0 0 0-.956-.388l-3.12 7.7a.516.516 0 0 0 .956.388l2.107-5.201 7.246 5.42a.516.516 0 0 0 .813-.303l1.423-6.483 4.188 6.55a.516.516 0 0 0 .87-.555l-4.86-7.6Z"/><path fill="#F9C23C" d="m24.37 23.94-5.96-.78a1.68 1.68 0 0 0-1.9 1.67c0 1.01.89 1.8 1.9 1.67l5.96-.78c.44-.06.78-.44.78-.88a.916.916 0 0 0-.78-.9Z"/><path fill="#fff" d="M18.13 25.83a.99.99 0 1 0 0-1.98.99.99 0 0 0 0 1.98Z"/><path fill="#0092E7" d="M17.76 8.14c-.34-.14-.84-.25-1.36-.05-1.31.5-1.43 1.43-1.43 1.43s-.22 1.17 1.3 2.26c.01 0 .92.94 1.58 2.36.13.28.47.39.74.24l3.56-2.01c-1.54-2.72-3.95-4.17-4.39-4.23Z"/><path fill="#FFD7C2" d="m21.98 12.1.24.78c.43 1.23.1 2.29-1 2.92l-3.95 2.72.04 5.53-1.39-.65-.78-4.78c-.12-.84.16-1.68.75-2.29l.01-.01 3.06-2.27 3.02-1.95Z"/><path fill="#533566" d="M13.6 24.62c.94-.49 2.33-1.21 2.33-1.21l1.4.65v1.12c0 .29-.59.27-.59.27l-3.01-.05s-.08-.01-.12-.12a.445.445 0 0 1-.05-.13h.01c-.078-.19-.093-.465.03-.53Z"/><path fill="#9B9B9B" d="M22.56 13.33s-.11-.69-1.17-2.12l-3.88 2.4.39.62c.13.21.08.48-.11.63l-1.32 1.03L18.43 18c.43.48 1.19.45 1.59-.05l1.68-1.93c.29-.34.54-.71.73-1.11.21-.43.27-1.14.13-1.58Z"/><path fill="#FFD7C2" d="m12.3 4.6-.91.49c-.77.41-1.06 1.38-.65 2.15l.21.39c.07.12.1.26.09.4-.02.42-.09.5-.01.66.11.25.37.19.49.14.03-.01.07 0 .09.03.49.85.98 1.39 2.02.84.63-.34 1.46-1.19 1.35-2.09l-.27-1.15-.26-1.21a1.603 1.603 0 0 0-2.15-.65Z"/><path fill="#fff" d="M11.52 7.85c-.05.03-.13 0-.16-.06v-.01c-.15-.26 0-.52.21-.63.21-.11.51-.09.65.17v.01c.03.07.01.14-.04.17l-.66.35Z"/><path fill="#7D4533" d="M11.43 7.89a.444.444 0 0 1-.08-.11c-.1-.19-.06-.4.08-.48.15-.08.35.01.45.2.02.04.04.09.05.13l-.5.26Z"/><path fill="#000" d="M11.52 7.85a.318.318 0 0 1-.1-.1c-.05-.11-.03-.24.05-.28.08-.04.2.01.25.11.02.05.03.09.03.14l-.23.13Z"/><path fill="#fff" d="M11.437 7.649c.032-.008.05-.048.04-.091-.01-.044-.044-.072-.076-.065-.032.007-.05.048-.04.091.01.043.043.072.076.065Z"/><path fill="#990838" d="M12.483 8.382c.06-.009.115.032.125.091a.577.577 0 0 1-.47.665.109.109 0 1 1-.035-.216.359.359 0 0 0 .29-.415.109.109 0 0 1 .09-.125Z"/><path fill="#212121" d="M13.17 4.896c-.81.228-.56.98-.48 1.164.08.18.3.26.48.18l.09-.04c.16-.08.35-.01.42.15l.29.6c.17.35.7.32.91.16.21-.16.38-.43.4-.64.03-.24-.01-.57-.07-.8-.05-.21-.12-.45-.2-.68-.758-.26-.79-.389-1.84-.094Z"/><path fill="#FFD7C2" d="M13.22 6.21c.32-.15.71-.01.86.31.13.27.05.59-.17.77-.07.05-.17.03-.2-.05l-.49-1.03Z"/><path fill="#433B6B" d="M14.39 9.51c-.1 0-.19-.06-.23-.16L13 6.17c-.05-.12.02-.26.14-.31.13-.05.26.02.31.14l1.16 3.18c.05.12-.02.26-.14.31-.03.02-.06.02-.08.02Z"/><path fill="#00A6ED" d="m12.06 3.18-1.45.69c-.95.45-1.36 1.59-.91 2.54l.4.84c.09.2.33.28.53.19l4.18-1.98c.2-.09.28-.33.19-.53l-.4-.84a1.911 1.911 0 0 0-2.54-.91Z"/><path fill="#007ACF" d="m12.79 4.96-1.27.6a.32.32 0 0 0-.15.43c.07.16.26.23.43.15l1.27-.6a.32.32 0 0 0 .15-.43.32.32 0 0 0-.43-.15Z"/><path fill="#FFD7C2" d="M16.79 8.87c-.51-.25-1.13-.05-1.39.46-.01.02-1.15 2.23-3.34 3.15-.74.31-2.17.57-2.65.65-.21.03-.66.26-.81.4 0 0-.79.79-.81 1.39-.02.6.97.9.97.9s.34.11.43-.4c.04-.2.23-.19.51-.24 0 0 2.05-.33 3.15-.79 2.92-1.22 4.34-4.02 4.39-4.14.27-.51.06-1.13-.45-1.38Z"/></svg>
